X:168
T:Lady Comptons Whim. JC.240
M:6/8
L:1/8
Q:190
S:John Clare,Poet,Helpstone (1793-1864)
R:Jig 32
O:England240
A:Northamptonshire
N:No TS or KS in the MS.
Z:Phil Headford
K:G
G2G BAG|F2GA2c|B2B dcB|ABG FED|!
G2G BAG|F2FA2c|BcB AGF|"crots"E3E3:|!
|:g2ee2g|f2d dcd|e2cc2e|d2B BAG|!
c2AA2c|B2GG2B|E2AG2F|"crots"G3G3:|]

